Adwaita++-Dark/actions/22/timeline-clip-in-project.svg

<svg fill="none" height="22" viewBox="0 0 22 22" width="22" xmlns="http://www.w3.org/2000/svg">
  <g fill="#e6ddff">
    <path d="m19 18h-1v1h1z"/>
    <path d="m17 18h-1v1h1z"/>
    <path d="m19 15h-1v1h1z"/>
    <path d="m17 15h-1v1h1z"/>
    <path d="m6 18h-1v1h1z"/>
    <path d="m4 18h-1v1h1z"/>
    <path d="m6 15h-1v1h1z"/>
    <path d="m4 15h-1v1h1z"/>
    <path d="m15 15h-8v4h8z"/>
  </g>
  <path d="m8.50001 13.9962 4.99999.0038v-.3029-.0314c.0005-.0584-.0194-.1163-.0625-.1672l-2-2.3415c-.0859-.1039-.2617-.1569-.4375-.157s-.3516.0526-.4375.1564l-1.99999 2.3384c-.04314.0508-.06314.1086-.0625.1671v.0313z" fill="#3584e4"/>
  <path clip-rule="evenodd" d="m16 4h-10v5h10zm-12-1c-.55228 0-1 .44772-1 1v5c0 .55228.44772 1 1 1h14c.5523 0 1-.44771 1-1v-5c0-.55228-.4477-1-1-1zm0 1h1v1h-1zm0 2h1v1h-1zm1 2h-1v1h1zm13-4h-1v1h1zm0 2h-1v1h1zm-1 2h1v1h-1z" fill="#e6ddff" fill-rule="evenodd"/>
  <path d="m10 8v-3l2 1.5z" fill="#e6ddff"/>
</svg>

<svg xmlns="http://www.w3.org/2000/svg" fill="none" width="22" height="22" viewBox="0 0 22 22">
 <path fill="#E6DDFF" d="M19 18H18V19H19V18Z"/>
 <path fill="#E6DDFF" d="M17 18H16V19H17V18Z"/>
 <path fill="#E6DDFF" d="M19 15H18V16H19V15Z"/>
 <path fill="#E6DDFF" d="M17 15H16V16H17V15Z"/>
 <path fill="#E6DDFF" d="M6 18H5V19H6V18Z"/>
 <path fill="#E6DDFF" d="M4 18H3V19H4V18Z"/>
 <path fill="#E6DDFF" d="M6 15H5V16H6V15Z"/>
 <path fill="#E6DDFF" d="M4 15H3V16H4V15Z"/>
 <path fill="#E6DDFF" d="M15 15H7V19H15V15Z"/>
 <path fill="#3584E4" d="M8.50001 13.9962L13.5 14V13.6971V13.6657C13.5005 13.6073 13.4806 13.5494 13.4375 13.4985L11.4375 11.157C11.3516 11.0531 11.1758 11.0001 11 11C10.8242 10.9999 10.6484 11.0526 10.5625 11.1564L8.56251 13.4948C8.51937 13.5456 8.49937 13.6034 8.50001 13.6619V13.6932V13.9962Z"/>
 <path fill="#E6DDFF" fill-rule="evenodd" d="M16 4H6V9H16V4ZM4 3C3.44772 3 3 3.44772 3 4V9C3 9.55228 3.44772 10 4 10H18C18.5523 10 19 9.55229 19 9V4C19 3.44772 18.5523 3 18 3H4ZM4 4H5V5H4V4ZM4 6H5V7H4V6ZM5 8H4V9H5V8ZM18 4H17V5H18V4ZM18 6H17V7H18V6ZM17 8H18V9H17V8Z" clip-rule="evenodd"/>
 <path fill="#E6DDFF" d="M10 8V5L12 6.5L10 8Z"/>
</svg>
